packages/ui/public/icons/eth.svg

<svg width="24" height="24" fill="none" xmlns="http://www.w3.org/2000/svg"><circle cx="12" cy="12" r="12" fill="#C943A8" fill-opacity=".25"/><path d="M12 4v6l5 2.5L12 4Z" fill="#FFBDFF"/><path d="M12 10V4l-5 8.5 5-2.5Z" fill="#fff"/><path d="M17 12.5 12 10v5l5-2.5Z" fill="#D147B0"/><path d="M12 15v-5l-5 2.5 5 2.5Z" fill="#FFD9FF"/><path d="m7 13 5 7v-4l-5-3Z" fill="#fff"/><path d="M12 16v4l5-7-5 3Z" fill="#FFE4FF"/></svg>

<svg width="24" height="24" viewBox="0 0 24 24" fill="none" xmlns="http://www.w3.org/2000/svg">
<circle cx="12" cy="12" r="12" fill="#C943A8" fill-opacity="0.25"/>
<path d="M12 4V10L17 12.5L12 4Z" fill="#FFBDFF"/>
<path d="M12 10V4L7 12.5L12 10Z" fill="white"/>
<path d="M17 12.5L12 10V15L17 12.5Z" fill="#D147B0"/>
<path d="M12 15V10L7 12.5L12 15Z" fill="#FFD9FF"/>
<path d="M7 13L12 20V16L7 13Z" fill="white"/>
<path d="M12 16V20L17 13L12 16Z" fill="#FFE4FF"/>
</svg>
